X:315
%%etbk:tnset id:97,pos:2,rep:3x,ant:
%%etbk:wsite http://www.thesession.org/tunes/display/108
%%etbk:pldat 2016-06-20T17:56,2016-05-04T16:05,2016-03-11T17:02,2016-03-09T15:36,2016-03-07T18:47,2016-03-05T13:24,2016-02-16T17:17,2015-11-03T15:51,2015-10-29T18:45,2015-10-27T15:40,2015-10-24T13:51,2015-10-20T17:15,2015-10-06T15:08,2015-05-28T18:19,2015-03-12T18:38,2015-03-09T17:43,2015-02-16T19:24,2015-01-27T16:20,2014-11-05T18:16,2014-11-02T15:08,2014-10-29T16:15,2014-08-21T19:34,2014-08-19T18:09,2014-06-13T15:19,2014-03-04T18:19,2014-03-02T16:17,2014-02-26T16:34,2013-10-30T15:30,2013-10-28T18:30,2013-10-24T18:29,2013-10-18T15:16,2013-10-14T18:51,2013-10-09T16:28
T: Out On The Ocean
Z: Piano Box Version by Martin Fleischmann
H: Created 2013-02-19 /  Last Modified 2013-02-19
M: 6/8
L: 1/8
R: jig
K: Amaj
|: "A"!1!E2!3!c {d}!3!cBA | !3!cec !2!BBc | !1!A!2!F!1!E !3!A2B | !5!c2c !4!B!3!A!2!F |
!1!E2!3!c {d}!3!cBA | !3!cec !2!BBc | !1!A!2!F!1!E !3!A2B |1 !5!c!3!A!2!G !3!A3:|2 !5!c!3!A!2!G !1!A!3!c!5!e:|
 "D"!3!f2f {g}!3!f!1!e!2!c | !3!faf !3!f!1!e!2!c | "A"!5!e2e !5!e!3!c!2!B | !5!e2e !5!e!3!c!2!B |
"A"!1!A2B !3!c2!5!e | !3!faf !1!e!3!c!2!B | !1!A!2!F!1!E !3!A2B | !5!c!3!A!2!G !1!A!3!c!5!e |
 "D"!3!f2f {g}!3!f!1!e!2!c | !3!faf !3!f!1!e!2!c | "A"!1!e2e !1!e!3!f!4!g | !5!a!4!g!3!f !1!e!3!c!2!B |
"A"!1!A2B !3!c2!5!e | !3!faf !1!e!3!c!2!B | !1!A!2!F!1!E !3!A2B | !5!c!3!A!2!G !3!A3 |


